!!!COM: Ludwig van Beethoven
!!!CNT: Deutsch
!!!TXO: Deutsch
!!!OTL: "Bitten"
!!!LYR: Gellert, Christian Fu2rchtegott
!!!OPS: Op. 48
!!!ONM: No. 1
!!!ENC: Amanda Harris
!!!YOR: Sa2mtliche Lieder, Band 1
!!!YOR: G. Henle Verlag
!!!ODT: 1801/
!!NB: Vocal melody and text encoded.
**kern	**silbe
*clefG2	*
*k[f#c#g#d#]	*
*M2/2	*
*MM[feierlich und mit andacht]	*
=8	=8
2r	.
{2b	{Gott,
=9	=9
2.b	dei-
4b	-ne
=10	=10
2.ee	Gu2-
4ee	-te
=11	=11
2ee	reicht
4dd#	|
4cc#	so
=12	=12
2.b	weit,
4b	so
=13	=13
2.b	weit
4b#	die
=14	=14
2cc#	Wol-
2ff#	-ken
=15	=15
2ee	ge-
4dd#}	-hen;}
4r	.
=16	=16
2r	.
{2dd#	{du
=17	=17
2dd#	kro2nst
2dd#	uns
=18	=18
2ee	mit
2ee	Barm-
=19	=19
2.ee	-her-
4ee	-zig-
=20	=20
2dd#	-keit
2cc#	-und
=21	=21
2.bn	eilst,
4b	uns
=22	=22
4dd#	bei-
4cc#	|
4b	-zu-
4a#	|
=23	=23
2a#	-ste-
4b}	-hen.}
4r	.
=26	=26
2r	.
{2b	{Herr,
=27	=27
2.ee	mei-
4ee	-ne
=28	=28
2.ee	Burg,
4ee	mein
=29	=29
2.ee	Fels,
4ee	mein
=30	=30
2.ee	Hort,
4ee	ver-
=31	=31
2.ee	-nimm
4ee	mein
=32	=32
2.ee	Flehn,
4ee	merk
=33	=33
2dd#	auf
4ee	mein
4gn	|
=34	=34
1f}	Wort;}
=35	=35
2r	.
{2f#	{denn
=36	=36
2.b	ich
4b	will
=37	=37
2.an	vor
4a	dir
=38	=38
1g#	be-
=39	=39
4gn	-ten,
4gn	denn
4gn	ich
4gn	will
=40	=40
2.f#	vor
4f#	dir
=41	=41
1f#	be-
=42	=42
2e}	-ten!}
2r	.
*-	*-
